u/stations/jre/img/04F.svg

<?xml version="1.0" encoding="UTF-8" standalone="no"?>
<svg
   xml:space="preserve"
   width="70"
   height="30"
   version="1.1"
   id="svg2"
   sodipodi:docname="04F.svg"
   inkscape:version="1.4 (e7c3feb1, 2024-10-09)"
   xmlns:inkscape="http://www.inkscape.org/namespaces/inkscape"
   xmlns:sodipodi="http://sodipodi.sourceforge.net/DTD/sodipodi-0.dtd"
   xmlns="http://www.w3.org/2000/svg"
   xmlns:svg="http://www.w3.org/2000/svg"><defs
     id="defs2"><clipPath
       id="b"><path
         d="M1 .625h14v18.75H1Zm0 0"
         id="path1" /></clipPath><clipPath
       id="c"><path
         d="M16 .625h18v18.75H16Zm0 0"
         id="path2-9" /></clipPath><clipPath
       id="a"><path
         d="M0 0h35v20H0z"
         id="path3" /></clipPath><clipPath
       id="e"><path
         d="M3 .762h17v26.875H3Zm0 0"
         id="path4" /></clipPath><clipPath
       id="f"><path
         d="M23 .762h17v26.875H23Zm0 0"
         id="path5" /></clipPath><clipPath
       id="d"><path
         d="M0 0h43v28H0z"
         id="path6" /></clipPath><g
       id="h"
       clip-path="url(#a)"><g
         clip-path="url(#b)"
         id="g7"><path
           d="M14.738 18.797a17 17 0 0 1-4.004.578c-5.687 0-9.656-2.926-9.656-9.047 0-6.2 3.668-9.664 9.656-9.664a11.6 11.6 0 0 1 3.965.73l-.261 3.044a7.17 7.17 0 0 0-3.817-.961c-3.629 0-5.914 2.847-5.914 6.543 0 3.695 2.207 6.468 5.988 6.468 1.387 0 3.032-.308 3.856-.77Zm0 0"
           id="path7" /></g><g
         clip-path="url(#c)"
         id="g8"><path
           d="M25.316.625c5.54 0 8.606 3.852 8.606 9.316 0 5.47-3.067 9.399-8.606 9.399-5.652 0-8.609-3.852-8.609-9.399 0-5.543 2.996-9.316 8.61-9.316m0 15.863c3.593 0 4.94-3.312 4.94-6.547 0-3.23-1.425-6.464-4.94-6.464-3.52 0-4.942 3.27-4.942 6.464 0 3.274 1.348 6.547 4.941 6.547"
           id="path8" /></g></g><g
       id="i"
       clip-path="url(#d)"><g
         clip-path="url(#e)"
         id="g9"><path
           d="M3.45 22.348c1.784.71 3.722 1.195 5.769 1.195 2.16 0 5.469-1.047 5.469-3.684 0-3.054-2.418-4.062-5.731-4.062H6.426v-4.09h2.383c3.5 0 5.773-1.16 5.773-3.43 0-2.605-2.125-3.422-4.473-3.422-2.043 0-4.015.485-5.84 1.375l-.296-4.167C6.05 1.243 8.547.762 11.23.762c3.204 0 8.56 1.113 8.56 6.66 0 3.535-2.196 5.21-4.837 6.223v.07c3.313.445 4.95 3.012 4.95 6.176 0 6.18-5.622 7.746-9.938 7.746-2.274 0-4.88-.297-6.817-.856z"
           id="path9" /></g><g
         clip-path="url(#f)"
         id="g10"><path
           d="M23.395 22.348c1.789.71 3.726 1.195 5.773 1.195 2.16 0 5.473-1.047 5.473-3.684 0-3.054-2.422-4.062-5.73-4.062h-2.532v-4.09h2.379c3.5 0 5.773-1.16 5.773-3.43 0-2.605-2.125-3.422-4.468-3.422-2.047 0-4.02.485-5.844 1.375l-.301-4.167C26.004 1.243 28.5.762 31.176.762c3.203 0 8.562 1.113 8.562 6.66 0 3.535-2.195 5.21-4.84 6.223v.07c3.317.445 4.954 3.012 4.954 6.176 0 6.18-5.618 7.746-9.938 7.746-2.27 0-4.875-.297-6.816-.856z"
           id="path10" /></g></g></defs><sodipodi:namedview
     id="namedview2"
     pagecolor="#ffffff"
     bordercolor="#000000"
     borderopacity="0.25"
     inkscape:showpageshadow="2"
     inkscape:pageopacity="0.0"
     inkscape:pagecheckerboard="0"
     inkscape:deskcolor="#d1d1d1"
     inkscape:zoom="3.016213"
     inkscape:cx="33.15415"
     inkscape:cy="11.43818"
     inkscape:window-width="1432"
     inkscape:window-height="398"
     inkscape:window-x="0"
     inkscape:window-y="25"
     inkscape:window-maximized="0"
     inkscape:current-layer="svg2" /><path
     fill="#de0615"
     d="M 30,0 H 40 V 30 H 30 Z"
     style="stroke-width:1.41421;paint-order:fill markers stroke"
     id="path2" /><circle
     cx="35"
     cy="15"
     r="6"
     fill="#fff"
     stroke="#05ac84"
     stroke-width="2"
     style="paint-order:fill markers stroke;stroke:#de0615;stroke-opacity:1"
     id="circle2" /><path
     fill="red"
     d="M 29.06,6.94 26.94,9.06 32.88,15 26.94,20.94 29.06,23.06 35,17.12 40.94,23.06 43.06,20.94 37.12,15 43.06,9.06 40.94,6.94 35,12.88 Z"
     style="fill:#ff0000;paint-order:fill markers stroke"
     id="path13" /></svg>

<svg xmlns="http://www.w3.org/2000/svg" xml:space="preserve" width="70" height="30"><path fill="#de0615" d="M30 0h10v30H30Z" style="stroke-width:1.41421;paint-order:fill markers stroke"/><circle cx="35" cy="15" r="6" fill="#fff" stroke="#05ac84" stroke-width="2" style="paint-order:fill markers stroke;stroke:#de0615;stroke-opacity:1"/><path fill="red" d="m29.06 6.94-2.12 2.12L32.88 15l-5.94 5.94 2.12 2.12L35 17.12l5.94 5.94 2.12-2.12L37.12 15l5.94-5.94-2.12-2.12L35 12.88Z" style="fill:red;paint-order:fill markers stroke"/></svg>
